svgs/king_dark.svg

<?xml version="1.0" encoding="UTF-8" standalone="no"?>
<svg
   xmlns:dc="http://purl.org/dc/elements/1.1/"
   xmlns:cc="http://creativecommons.org/ns#"
   xmlns:rdf="http://www.w3.org/1999/02/22-rdf-syntax-ns#"
   xmlns:svg="http://www.w3.org/2000/svg"
   xmlns="http://www.w3.org/2000/svg"
   xmlns:sodipodi="http://sodipodi.sourceforge.net/DTD/sodipodi-0.dtd"
   xmlns:inkscape="http://www.inkscape.org/namespaces/inkscape"
   version="1.1"
   width="80"
   height="80"
   id="svg15"
   sodipodi:docname="king_dark.svg"
   inkscape:version="0.92.4 (5da689c313, 2019-01-14)">
  <metadata
     id="metadata21">
    <rdf:RDF>
      <cc:Work
         rdf:about="">
        <dc:format>image/svg+xml</dc:format>
        <dc:type
           rdf:resource="http://purl.org/dc/dcmitype/StillImage" />
        <dc:title></dc:title>
      </cc:Work>
    </rdf:RDF>
  </metadata>
  <defs
     id="defs19" />
  <sodipodi:namedview
     pagecolor="#ffffff"
     bordercolor="#666666"
     borderopacity="1"
     objecttolerance="10"
     gridtolerance="10"
     guidetolerance="10"
     inkscape:pageopacity="0"
     inkscape:pageshadow="2"
     inkscape:window-width="1920"
     inkscape:window-height="1017"
     id="namedview17"
     showgrid="false"
     inkscape:pagecheckerboard="true"
     inkscape:zoom="5.2444444"
     inkscape:cx="22.5"
     inkscape:cy="22.5"
     inkscape:window-x="-8"
     inkscape:window-y="-8"
     inkscape:window-maximized="1"
     inkscape:current-layer="svg15" />
  <g
     style="fill:none;fill-opacity:1;fill-rule:evenodd;stroke:#000000;stroke-width:1.5;stroke-linecap:round;stroke-linejoin:round;stroke-miterlimit:4;stroke-dasharray:none;stroke-opacity:1"
     id="g13"
     transform="matrix(2.0030647,0,0,2.0030647,-5.0689557,-5.7162274)">
    <path
       d="M 22.5,11.63 V 6"
       style="fill:none;stroke:#000000;stroke-linejoin:miter"
       id="path6570"
       inkscape:connector-curvature="0" />
    <path
       d="m 22.5,25 c 0,0 4.5,-7.5 3,-10.5 0,0 -1,-2.5 -3,-2.5 -2,0 -3,2.5 -3,2.5 -1.5,3 3,10.5 3,10.5"
       style="fill:#000000;fill-opacity:1;stroke-linecap:butt;stroke-linejoin:miter"
       id="path3"
       inkscape:connector-curvature="0" />
    <path
       d="m 12.5,37 c 5.5,3.5 14.5,3.5 20,0 v -7 c 0,0 9,-4.5 6,-10.5 -4,-6.5 -13.5,-3.5 -16,4 V 27 23.5 C 20,16 10.5,13 6.5,19.5 c -3,6 6,10.5 6,10.5 v 7"
       style="fill:#000000;stroke:#000000"
       id="path5"
       inkscape:connector-curvature="0" />
    <path
       d="m 20,8 h 5"
       style="fill:none;stroke:#000000;stroke-linejoin:miter"
       id="path7"
       inkscape:connector-curvature="0" />
    <path
       d="m 32,29.5 c 0,0 8.5,-4 6.03,-9.65 C 34.15,14 25,18 22.5,24.5 v 2.1 -2.1 C 20,18 10.85,14 6.97,19.85 4.5,25.5 13,29.5 13,29.5"
       style="fill:none;stroke:#ffffff"
       id="path9"
       inkscape:connector-curvature="0" />
    <path
       d="m 12.5,30 c 5.5,-3 14.5,-3 20,0 m -20,3.5 c 5.5,-3 14.5,-3 20,0 m -20,3.5 c 5.5,-3 14.5,-3 20,0"
       style="fill:none;stroke:#ffffff"
       id="path11"
       inkscape:connector-curvature="0" />
  </g>
</svg>

<?xml version="1.0" encoding="UTF-8" standalone="no"?>
<!DOCTYPE svg PUBLIC "-//W3C//DTD SVG 1.1//EN" "http://www.w3.org/Graphics/SVG/1.1/DTD/svg11.dtd">
<svg xmlns="http://www.w3.org/2000/svg" version="1.1" width="45" height="45">
  <g style="fill:none; fill-opacity:1; fill-rule:evenodd; stroke:#000000; stroke-width:1.5; stroke-linecap:round;stroke-linejoin:round;stroke-miterlimit:4; stroke-dasharray:none; stroke-opacity:1;">
    <path d="M 22.5,11.63 L 22.5,6" style="fill:none; stroke:#000000; stroke-linejoin:miter;" id="path6570"/>
    <path d="M 22.5,25 C 22.5,25 27,17.5 25.5,14.5 C 25.5,14.5 24.5,12 22.5,12 C 20.5,12 19.5,14.5 19.5,14.5 C 18,17.5 22.5,25 22.5,25" style="fill:#000000;fill-opacity:1; stroke-linecap:butt; stroke-linejoin:miter;"/>
    <path d="M 12.5,37 C 18,40.5 27,40.5 32.5,37 L 32.5,30 C 32.5,30 41.5,25.5 38.5,19.5 C 34.5,13 25,16 22.5,23.5 L 22.5,27 L 22.5,23.5 C 20,16 10.5,13 6.5,19.5 C 3.5,25.5 12.5,30 12.5,30 L 12.5,37" style="fill:#000000; stroke:#000000;"/>
    <path d="M 20,8 L 25,8" style="fill:none; stroke:#000000; stroke-linejoin:miter;"/>
    <path d="M 32,29.5 C 32,29.5 40.5,25.5 38.03,19.85 C 34.15,14 25,18 22.5,24.5 L 22.5,26.6 L 22.5,24.5 C 20,18 10.85,14 6.97,19.85 C 4.5,25.5 13,29.5 13,29.5" style="fill:none; stroke:#ffffff;"/>
    <path d="M 12.5,30 C 18,27 27,27 32.5,30 M 12.5,33.5 C 18,30.5 27,30.5 32.5,33.5 M 12.5,37 C 18,34 27,34 32.5,37" style="fill:none; stroke:#ffffff;"/>
  </g>
</svg>
